svg/u1f9d1_1f3fb.svg

<svg viewBox="0 0 128 128" xmlns="http://www.w3.org/2000/svg">
  <g id="hairGroup">
    <path id="hair_3_" d="M109.4,102.62c-1.62-2.96,0.45-5.96,3.98-9.68c5.6-5.91,11.7-19.6,6.04-33.51 c0.03-0.08-1.12-2.42-1.08-2.5L116,56.81c-0.75-0.11-26.36-0.16-52-0.16s-51.25,0.05-52,0.16c0,0-3.45,2.54-3.42,2.61 c-5.66,13.91,0.44,27.6,6.04,33.51c3.53,3.72,5.6,6.73,3.98,9.68c-1.57,2.87-6.26,3.29-6.26,3.29s1.08,2.94,3.69,4.52 c2.41,1.46,5.37,1.81,7.42,1.86c0,0,8,11.07,28.92,11.07l11.64,0l11.64,0c20.92,0,28.92-11.07,28.92-11.07 c2.05-0.05,5.01-0.39,7.42-1.86c2.61-1.58,3.69-4.52,3.69-4.52S110.98,105.49,109.4,102.62z" fill="#312D2D"/>
    <g id="hairHighlights_1_">
      <radialGradient id="SVGID_1_" cx="95.2482" cy="22.3845" gradientTransform="matrix(1 0 0 0.4912 -12.2754 94.6198)" gradientUnits="userSpaceOnUse" r="30.4687">
        <stop offset="0.7275" stop-color="#454140" stop-opacity="0"/>
        <stop offset="1" stop-color="#454140"/>
      </radialGradient>
      <path d="M63.99,123.36v-12.29l37.18-2.94l3.38,4.16c0,0-8,11.07-28.92,11.07L63.99,123.36z" fill="url(#SVGID_1_)"/>
      <radialGradient id="SVGID_2_" cx="65.2397" cy="26.9145" gradientTransform="matrix(-0.9057 0.4238 -0.3144 -0.6719 180.5332 91.5174)" gradientUnits="userSpaceOnUse" r="9.0043">
        <stop offset="0.6628" stop-color="#454140"/>
        <stop offset="1" stop-color="#454140" stop-opacity="0"/>
      </radialGradient>
      <path d="M104.46,106.93c-5.57-8.46,6.78-11.61,6.78-11.61s0.01,0.01,0.01,0.01 c-2.15,2.67-3.12,5-1.86,7.29c1.57,2.87,6.26,3.29,6.26,3.29S109.27,111.59,104.46,106.93z" fill="url(#SVGID_2_)"/>
      <radialGradient id="SVGID_3_" cx="88.5753" cy="52.3869" gradientTransform="matrix(-0.0746 -0.9972 0.8311 -0.0622 52.7176 167.2005)" gradientUnits="userSpaceOnUse" r="39.5502">
        <stop offset="0.7247" stop-color="#454140" stop-opacity="0"/>
        <stop offset="1" stop-color="#454140"/>
      </radialGradient>
      <path d="M119.45,59.42c5.53,13.47-0.29,27.34-5.74,33.19c-0.75,0.8-3.92,3.92-4.64,6.4 c0,0-12.42-17.31-16.12-27.49c-0.75-2.05-1.43-4.17-1.52-6.35c-0.07-1.64,0.19-3.59,1.13-4.98c1.16-1.71,26.23-2.21,26.23-2.21 C118.79,58,119.45,59.42,119.45,59.42z" fill="url(#SVGID_3_)"/>
      <radialGradient id="SVGID_4_" cx="38.3831" cy="52.3869" gradientTransform="matrix(0.0746 -0.9972 -0.8311 -0.0622 79.0565 117.1482)" gradientUnits="userSpaceOnUse" r="39.5502">
        <stop offset="0.7247" stop-color="#454140" stop-opacity="0"/>
        <stop offset="1" stop-color="#454140"/>
      </radialGradient>
      <path d="M8.58,59.42c-5.52,13.47,0.29,27.34,5.74,33.19c0.75,0.8,3.92,3.92,4.64,6.4 c0,0,12.42-17.31,16.12-27.49c0.75-2.05,1.43-4.17,1.52-6.35c0.07-1.64-0.19-3.59-1.13-4.98c-1.16-1.71-2.51-1.25-4.47-1.25 c-3.75,0-20.15-0.96-21.42-0.96C9.58,58,8.58,59.42,8.58,59.42z" fill="url(#SVGID_4_)"/>
      <radialGradient id="SVGID_5_" cx="45.056" cy="22.3845" gradientTransform="matrix(-1 0 0 0.4912 90.1119 94.6198)" gradientUnits="userSpaceOnUse" r="30.4687">
        <stop offset="0.7275" stop-color="#454140" stop-opacity="0"/>
        <stop offset="1" stop-color="#454140"/>
      </radialGradient>
      <path d="M64.04,123.36v-12.29l-37.18-2.94l-3.38,4.16c0,0,8,11.07,28.92,11.07L64.04,123.36z" fill="url(#SVGID_5_)"/>
      <radialGradient id="SVGID_6_" cx="15.0474" cy="26.9145" gradientTransform="matrix(0.9057 0.4238 0.3144 -0.6719 -7.043 112.7898)" gradientUnits="userSpaceOnUse" r="9.0043">
        <stop offset="0.6628" stop-color="#454140"/>
        <stop offset="1" stop-color="#454140" stop-opacity="0"/>
      </radialGradient>
      <path d="M23.57,106.93c5.57-8.46-6.78-11.61-6.78-11.61s-0.01,0.01-0.01,0.01 c2.15,2.67,3.12,5,1.86,7.29c-1.57,2.87-6.26,3.29-6.26,3.29S18.76,111.59,23.57,106.93z" fill="url(#SVGID_6_)"/>
    </g>
  </g>
  <g id="face">
    <g id="ears">
      <path d="M99.55,64.37h-9.59H38.04h-9.59c-7.67,0-13.94,6.68-13.94,14.85s6.27,14.85,13.94,14.85h9.59h51.93 h9.59c7.67,0,13.94-6.68,13.94-14.85S107.22,64.37,99.55,64.37z" fill="#EDC391"/>
    </g>
    <g id="head">
      <path d="M64,13.15L64,13.15L64,13.15c-22.64,0-43.61,24.21-43.61,59.06C20.39,106.87,42,124,64,124 s43.61-17.13,43.61-51.79C107.61,37.37,86.64,13.15,64,13.15z" fill="#F9DDBD"/>
    </g>
    <path id="nose" d="M69.02,87.29c-0.14-0.06-0.28-0.09-0.42-0.11h-9.2c-0.14,0.02-0.28,0.05-0.42,0.11 c-0.83,0.34-1.29,1.2-0.9,2.12c0.4,0.92,2.23,3.5,5.92,3.5s5.52-2.58,5.92-3.5S69.86,87.63,69.02,87.29z" fill="#DBA689"/>
    <path id="mouth" d="M74.95,97.71c-4.14,2.46-17.73,2.46-21.87,0c-2.38-1.42-4.81,0.75-3.82,2.91 c0.97,2.12,8.38,7.06,14.79,7.06s13.72-4.93,14.7-7.06C79.73,98.46,77.33,96.3,74.95,97.71z" fill="#444444"/>
    <g id="eyes">
      <ellipse cx="42.9" cy="75.23" fill="#312D2D" rx="6.32" ry="6.55"/>
      <ellipse cx="85.1" cy="75.23" fill="#312D2D" rx="6.32" ry="6.55"/>
    </g>
    <g id="eyebrows">
      <path d="M52.29,63.47c-1.2-1.59-3.99-3.91-9.39-3.91s-8.19,2.32-9.39,3.91c-0.53,0.71-0.4,1.52-0.03,2.01 c0.34,0.46,1.35,0.88,2.47,0.5c1.12-0.38,3.3-1.51,6.95-1.53c3.65,0.03,5.84,1.15,6.95,1.53s2.13-0.04,2.47-0.5 C52.69,64.99,52.82,64.18,52.29,63.47z" fill="#454140"/>
      <path d="M94.5,63.47c-1.2-1.59-3.99-3.91-9.39-3.91s-8.19,2.32-9.39,3.91c-0.53,0.71-0.4,1.52-0.03,2.01 c0.34,0.46,1.35,0.88,2.47,0.5c1.12-0.38,3.3-1.51,6.95-1.53c3.65,0.03,5.84,1.15,6.95,1.53c1.12,0.38,2.13-0.04,2.47-0.5 C94.89,64.99,95.03,64.18,94.5,63.47z" fill="#454140"/>
    </g>
  </g>
  <g id="hairGroup_1_">
    <path id="hair" d="M116.14,31.41c-3.18-4.81-10.29-11.25-16.68-11.67c-1.02-6.14-7.6-11.34-13.96-13.36 c-17.21-5.45-28.42,0.66-34.43,3.94c-1.25,0.68-9.33,5.16-14.98,1.95c-3.54-2.01-3.47-7.46-3.47-7.46s-11.09,4.22-7.3,16 c-3.81,0.16-8.81,1.76-11.45,7.11c-3.15,6.37-2.03,11.7-1.12,14.25c-3.28,2.78-7.4,8.71-4.57,16.4c2.13,5.79,10.63,8.45,10.63,8.45 c-0.6,10.42,1.34,16.84,2.37,19.43c0.18,0.45,0.83,0.41,0.94-0.06c1.28-5.16,5.68-23.15,5.24-26.29c0,0,14.76-2.93,28.84-13.29 c2.87-2.11,5.97-3.91,9.27-5.22c17.68-7.04,21.38,4.97,21.38,4.97s12.25-2.35,15.95,14.67c1.39,6.38,2.33,16.59,3.12,23.73 c0.06,0.5,0.74,0.61,0.94,0.14c1.24-2.83,3.71-8.46,4.3-14.19c0.21-2.02,5.65-4.69,7.98-13.35 C122.28,45.99,118.43,34.88,116.14,31.41z" fill="#312D2D"/>
    <g id="hairHighlights">
      <radialGradient id="SVGID_7_" cx="87.4431" cy="73.2499" gradientTransform="matrix(0.3076 0.9515 0.706 -0.2282 8.8293 -11.7389)" gradientUnits="userSpaceOnUse" r="46.3592">
        <stop offset="0.6985" stop-color="#454140" stop-opacity="0"/>
        <stop offset="1" stop-color="#454140"/>
      </radialGradient>
      <path d="M111.12,70.95c0.21-2.02,5.65-4.69,7.98-13.35c0.25-0.92,0.46-1.86,0.65-2.8 c1.9-10.53-1.51-20.19-3.63-23.39c-2.94-4.44-9.24-10.27-15.22-11.46c-0.52-0.07-1.03-0.13-1.51-0.16c0,0,0.43,2.79-0.7,5.02 c-1.46,2.89-4.43,3.57-4.43,3.57C109.85,43.97,108.74,57.01,111.12,70.95z" fill="url(#SVGID_7_)"/>
      <radialGradient id="SVGID_8_" cx="42.2468" cy="123.7993" gradientTransform="matrix(0.8813 0.4726 0.5603 -1.045 -64.3494 113.6062)" gradientUnits="userSpaceOnUse" r="12.155">
        <stop offset="0.58" stop-color="#454140"/>
        <stop offset="1" stop-color="#454140" stop-opacity="0"/>
      </radialGradient>
      <path d="M54.83,8.35c-1.42,0.69-2.68,1.38-3.77,1.97c-1.25,0.68-9.33,5.16-14.98,1.95 c-3.48-1.98-3.48-7.26-3.47-7.45c-1.6,2.04-6.44,16.63,7.71,17.6c6.1,0.42,9.87-4.9,12.09-9.41C53.22,11.38,54.49,8.99,54.83,8.35 z" fill="url(#SVGID_8_)"/>
      <radialGradient id="SVGID_9_" cx="163.6011" cy="66.0509" gradientTransform="matrix(-0.9378 -0.3944 -0.2182 0.5285 237.2498 55.8951)" gradientUnits="userSpaceOnUse" r="37.3669">
        <stop offset="0.6985" stop-color="#454140" stop-opacity="0"/>
        <stop offset="1" stop-color="#454140"/>
      </radialGradient>
      <path d="M83.72,5.85c9.52,2.58,14.17,7.42,15.72,13.9c0.46,1.9,1,19.62-32.83-0.52 c-12.58-7.49-9.15-12.18-7.67-12.71C64.69,4.43,73.05,2.96,83.72,5.85z" fill="url(#SVGID_9_)"/>
      <radialGradient id="SVGID_10_" cx="37.3665" cy="112.7095" gradientTransform="matrix(1 0 0 -1.2233 0 153.1685)" gradientUnits="userSpaceOnUse" r="11.157">
        <stop offset="0.7016" stop-color="#454140" stop-opacity="0"/>
        <stop offset="1" stop-color="#454140"/>
      </radialGradient>
      <path d="M32.57,4.82c-0.02,0.01-0.04,0.02-0.08,0.03c0,0-0.01,0-0.01,0 c-1.21,0.51-10.73,4.91-7.17,15.94l10.13,1.63C26.48,13.35,32.61,4.8,32.61,4.8S32.59,4.81,32.57,4.82z" fill="url(#SVGID_10_)"/>
      <radialGradient id="SVGID_11_" cx="35.8315" cy="93.0162" gradientTransform="matrix(-0.9657 -0.2598 -0.2432 0.9037 93.0552 -39.7655)" gradientUnits="userSpaceOnUse" r="20.925">
        <stop offset="0.6605" stop-color="#454140" stop-opacity="0"/>
        <stop offset="1" stop-color="#454140"/>
      </radialGradient>
      <path d="M31.57,21.81l-6.26-1.01c-0.24,0-1.08,0.08-1.53,0.14c-3.52,0.49-7.68,2.31-9.92,6.98 c-2.42,5.02-2.35,9.33-1.7,12.21c0.19,0.97,0.58,2.05,0.58,2.05s3.1-2.94,10.47-3.13L31.57,21.81z" fill="url(#SVGID_11_)"/>
      <radialGradient id="SVGID_12_" cx="30.8673" cy="72.8114" gradientTransform="matrix(0.9907 0.1363 0.1915 -1.3921 -13.6534 152.3416)" gradientUnits="userSpaceOnUse" r="21.9686">
        <stop offset="0.5981" stop-color="#454140" stop-opacity="0"/>
        <stop offset="1" stop-color="#454140"/>
      </radialGradient>
      <path d="M12.44,42.42c-3.08,2.74-7.24,8.84-4.17,16.4c2.31,5.71,10.53,8.19,10.53,8.19 c0,0.03,1.64,0.51,2.49,0.51l1.92-28.49c-3.94,0-7.72,1.18-10.17,2.88C13.06,41.97,12.43,42.38,12.44,42.42z" fill="url(#SVGID_12_)"/>
    </g>
  </g>
</svg>

<svg viewBox="0 0 128 128" xmlns="http://www.w3.org/2000/svg">
  <defs>
    <radialGradient id="SVGID_1_" cx="82.9728" cy="215.014386" gradientTransform="matrix(1 0 0 0.4912 0 0)" gradientUnits="userSpaceOnUse" r="30.4687">
      <stop offset="0.7275" stop-color="#454140" stop-opacity="0"/>
      <stop offset="1" stop-color="#454140"/>
    </radialGradient>
    <radialGradient id="SVGID_2_" cx="-59.496567" cy="-187.969605" gradientTransform="matrix(-0.9057 0.4238 -0.3144 -0.6719 0 0)" gradientUnits="userSpaceOnUse" r="9.0043">
      <stop offset="0.6628" stop-color="#454140"/>
      <stop offset="1" stop-color="#454140" stop-opacity="0"/>
    </radialGradient>
    <radialGradient id="SVGID_3_" cx="-82.09562" cy="100.498498" gradientTransform="matrix(-0.0746 -0.9972 0.8311 -0.0622 0 0)" gradientUnits="userSpaceOnUse" r="39.5502">
      <stop offset="0.7247" stop-color="#454140" stop-opacity="0"/>
      <stop offset="1" stop-color="#454140"/>
    </radialGradient>
    <radialGradient id="SVGID_4_" cx="-72.539756" cy="-52.692326" gradientTransform="matrix(0.0746 -0.9972 -0.8311 -0.0622 0 0)" gradientUnits="userSpaceOnUse" r="39.5502">
      <stop offset="0.7247" stop-color="#454140" stop-opacity="0"/>
      <stop offset="1" stop-color="#454140"/>
    </radialGradient>
    <radialGradient id="SVGID_5_" cx="-45.0559" cy="215.014386" gradientTransform="matrix(-1 0 0 0.4912 0 0)" gradientUnits="userSpaceOnUse" r="30.4687">
      <stop offset="0.7275" stop-color="#454140" stop-opacity="0"/>
      <stop offset="1" stop-color="#454140"/>
    </radialGradient>
    <radialGradient id="SVGID_6_" cx="56.473181" cy="-114.82319" gradientTransform="matrix(0.9057 0.4238 0.3144 -0.6719 0 0)" gradientUnits="userSpaceOnUse" r="9.0043">
      <stop offset="0.6628" stop-color="#454140"/>
      <stop offset="1" stop-color="#454140" stop-opacity="0"/>
    </radialGradient>
    <radialGradient id="SVGID_7_" cx="78.988637" cy="89.43955" gradientTransform="matrix(0.3076 0.9515 0.706 -0.2282 0 0)" gradientUnits="userSpaceOnUse" r="46.3592">
      <stop offset="0.6985" stop-color="#454140" stop-opacity="0"/>
      <stop offset="1" stop-color="#454140"/>
    </radialGradient>
    <radialGradient id="SVGID_8_" cx="39.217873" cy="13.715404" gradientTransform="matrix(0.8813 0.4726 0.5603 -1.045 0 0)" gradientUnits="userSpaceOnUse" r="12.155">
      <stop offset="0.58" stop-color="#454140"/>
      <stop offset="1" stop-color="#454140" stop-opacity="0"/>
    </radialGradient>
    <radialGradient id="SVGID_9_" cx="-72.923377" cy="-4.696789" gradientTransform="matrix(-0.9378 -0.3944 -0.2182 0.5285 0 0)" gradientUnits="userSpaceOnUse" r="37.3669">
      <stop offset="0.6985" stop-color="#454140" stop-opacity="0"/>
      <stop offset="1" stop-color="#454140"/>
    </radialGradient>
    <radialGradient id="SVGID_10_" cx="37.3665" cy="-12.49977" gradientTransform="matrix(1 0 0 -1.2233 0 0)" gradientUnits="userSpaceOnUse" r="11.157">
      <stop offset="0.7016" stop-color="#454140" stop-opacity="0"/>
      <stop offset="1" stop-color="#454140"/>
    </radialGradient>
    <radialGradient id="SVGID_11_" cx="-43.689915" cy="26.152015" gradientTransform="matrix(-0.9657 -0.2598 -0.2432 0.9037 0 0)" gradientUnits="userSpaceOnUse" r="20.925">
      <stop offset="0.6605" stop-color="#454140" stop-opacity="0"/>
      <stop offset="1" stop-color="#454140"/>
    </radialGradient>
    <radialGradient id="SVGID_12_" cx="38.101943" cy="-35.913202" gradientTransform="matrix(0.9907 0.1363 0.1915 -1.3921 0 0)" gradientUnits="userSpaceOnUse" r="21.9686">
      <stop offset="0.5981" stop-color="#454140" stop-opacity="0"/>
      <stop offset="1" stop-color="#454140"/>
    </radialGradient>
  </defs>
  <path id="hair_3_" d="M109.4,102.62 C107.78,99.66 109.85,96.66 113.38,92.94 C118.98,87.03 125.08,73.34 119.42,59.43 C119.45,59.35 118.3,57.01 118.34,56.93 L116,56.81 C115.25,56.7 89.64,56.65 64,56.65 C38.36,56.65 12.75,56.7 12,56.81 C12,56.81 8.55,59.35 8.58,59.42 C2.92,73.33 9.02,87.02 14.62,92.93 C18.15,96.65 20.22,99.66 18.6,102.61 C17.03,105.48 12.34,105.9 12.34,105.9 C12.34,105.9 13.42,108.84 16.03,110.42 C18.44,111.88 21.4,112.23 23.45,112.28 C23.45,112.28 31.45,123.35 52.37,123.35 L64.01,123.35 L75.65,123.35 C96.57,123.35 104.57,112.28 104.57,112.28 C106.62,112.23 109.58,111.89 111.99,110.42 C114.6,108.84 115.68,105.9 115.68,105.9 C115.68,105.9 110.98,105.49 109.4,102.62 Z" fill="#312D2D"/>
  <path d="M63.99,123.36 L63.99,111.07 L101.17,108.13 L104.55,112.29 C104.55,112.29 96.55,123.36 75.63,123.36 L63.99,123.36 Z" fill="url(#SVGID_1_)"/>
  <path d="M104.46,106.93 C98.89,98.47 111.24,95.32 111.24,95.32 C111.24,95.32 111.25,95.33 111.25,95.33 C109.1,98 108.13,100.33 109.39,102.62 C110.96,105.49 115.65,105.91 115.65,105.91 C115.65,105.91 109.27,111.59 104.46,106.93 Z" fill="url(#SVGID_2_)"/>
  <path d="M119.45,59.42 C124.98,72.89 119.16,86.76 113.71,92.61 C112.96,93.41 109.79,96.53 109.07,99.01 C109.07,99.01 96.65,81.7 92.95,71.52 C92.2,69.47 91.52,67.35 91.43,65.17 C91.36,63.53 91.62,61.58 92.56,60.19 C93.72,58.48 118.79,57.98 118.79,57.98 C118.79,58 119.45,59.42 119.45,59.42 Z" fill="url(#SVGID_3_)"/>
  <path d="M8.58,59.42 C3.06,72.89 8.87,86.76 14.32,92.61 C15.07,93.41 18.24,96.53 18.96,99.01 C18.96,99.01 31.38,81.7 35.08,71.52 C35.83,69.47 36.51,67.35 36.6,65.17 C36.67,63.53 36.41,61.58 35.47,60.19 C34.31,58.48 32.96,58.94 31,58.94 C27.25,58.94 10.85,57.98 9.58,57.98 C9.58,58 8.58,59.42 8.58,59.42 Z" fill="url(#SVGID_4_)"/>
  <path d="M64.04,123.36 L64.04,111.07 L26.86,108.13 L23.48,112.29 C23.48,112.29 31.48,123.36 52.4,123.36 L64.04,123.36 Z" fill="url(#SVGID_5_)"/>
  <path d="M23.57,106.93 C29.14,98.47 16.79,95.32 16.79,95.32 C16.79,95.32 16.78,95.33 16.78,95.33 C18.93,98 19.9,100.33 18.64,102.62 C17.07,105.49 12.38,105.91 12.38,105.91 C12.38,105.91 18.76,111.59 23.57,106.93 Z" fill="url(#SVGID_6_)"/>
  <path d="M99.55,64.37 L89.96,64.37 L38.04,64.37 L28.45,64.37 C20.78,64.37 14.51,71.05 14.51,79.22 C14.51,87.39 20.78,94.07 28.45,94.07 L38.04,94.07 L89.97,94.07 L99.56,94.07 C107.23,94.07 113.5,87.39 113.5,79.22 C113.5,71.05 107.22,64.37 99.55,64.37 Z" fill="#EDC391"/>
  <path d="M64,13.15 L64,13.15 L64,13.15 C41.36,13.15 20.39,37.36 20.39,72.21 C20.39,106.87 42,124 64,124 C86,124 107.61,106.87 107.61,72.21 C107.61,37.37 86.64,13.15 64,13.15 Z" fill="#F9DDBD"/>
  <path id="nose" d="M69.02,87.29 C68.88,87.23 68.74,87.2 68.6,87.18 L59.4,87.18 C59.26,87.2 59.12,87.23 58.98,87.29 C58.15,87.63 57.69,88.49 58.08,89.41 C58.48,90.33 60.31,92.91 64,92.91 C67.69,92.91 69.52,90.33 69.92,89.41 C70.32,88.49 69.86,87.63 69.02,87.29 Z" fill="#DBA689"/>
  <path id="mouth" d="M74.95,97.71 C70.81,100.17 57.22,100.17 53.08,97.71 C50.7,96.29 48.27,98.46 49.26,100.62 C50.23,102.74 57.64,107.68 64.05,107.68 C70.46,107.68 77.77,102.75 78.75,100.62 C79.73,98.46 77.33,96.3 74.95,97.71 Z" fill="#444444"/>
  <path d="M49.22,75.23 A6.32 6.55 0 1 1 36.58,75.23 A6.32 6.55 0 1 1 49.22,75.23 Z" fill="#312D2D"/>
  <path d="M91.42,75.23 A6.32 6.55 0 1 1 78.78,75.23 A6.32 6.55 0 1 1 91.42,75.23 Z" fill="#312D2D"/>
  <path d="M52.29,63.47 C51.09,61.88 48.3,59.56 42.9,59.56 C37.5,59.56 34.71,61.88 33.51,63.47 C32.98,64.18 33.11,64.99 33.48,65.48 C33.82,65.94 34.83,66.36 35.95,65.98 C37.07,65.6 39.25,64.47 42.9,64.45 C46.55,64.48 48.74,65.6 49.85,65.98 C50.96,66.36 51.98,65.94 52.32,65.48 C52.69,64.99 52.82,64.18 52.29,63.47 Z" fill="#454140"/>
  <path d="M94.5,63.47 C93.3,61.88 90.51,59.56 85.11,59.56 C79.71,59.56 76.92,61.88 75.72,63.47 C75.19,64.18 75.32,64.99 75.69,65.48 C76.03,65.94 77.04,66.36 78.16,65.98 C79.28,65.6 81.46,64.47 85.11,64.45 C88.76,64.48 90.95,65.6 92.06,65.98 C93.18,66.36 94.19,65.94 94.53,65.48 C94.89,64.99 95.03,64.18 94.5,63.47 Z" fill="#454140"/>
  <path id="hair" d="M116.14,31.41 C112.96,26.6 105.85,20.16 99.46,19.74 C98.44,13.6 91.86,8.4 85.5,6.38 C68.29,0.93 57.08,7.04 51.07,10.32 C49.82,11 41.74,15.48 36.09,12.27 C32.55,10.26 32.62,4.81 32.62,4.81 C32.62,4.81 21.53,9.03 25.32,20.81 C21.51,20.97 16.51,22.57 13.87,27.92 C10.72,34.29 11.84,39.62 12.75,42.17 C9.47,44.95 5.35,50.88 8.18,58.57 C10.31,64.36 18.81,67.02 18.81,67.02 C18.21,77.44 20.15,83.86 21.18,86.45 C21.36,86.9 22.01,86.86 22.12,86.39 C23.4,81.23 27.8,63.24 27.36,60.1 C27.36,60.1 42.12,57.17 56.2,46.81 C59.07,44.7 62.17,42.9 65.47,41.59 C83.15,34.55 86.85,46.56 86.85,46.56 C86.85,46.56 99.1,44.21 102.8,61.23 C104.19,67.61 105.13,77.82 105.92,84.96 C105.98,85.46 106.66,85.57 106.86,85.1 C108.1,82.27 110.57,76.64 111.16,70.91 C111.37,68.89 116.81,66.22 119.14,57.56 C122.28,45.99 118.43,34.88 116.14,31.41 Z" fill="#312D2D"/>
  <path d="M111.12,70.95 C111.33,68.93 116.77,66.26 119.1,57.6 C119.35,56.68 119.56,55.74 119.75,54.8 C121.65,44.27 118.24,34.61 116.12,31.41 C113.18,26.97 106.88,21.14 100.9,19.95 C100.38,19.88 99.87,19.82 99.39,19.79 C99.39,19.79 99.82,22.58 98.69,24.81 C97.23,27.7 94.26,28.38 94.26,28.38 C109.85,43.97 108.74,57.01 111.12,70.95 Z" fill="url(#SVGID_7_)"/>
  <path d="M54.83,8.35 C53.41,9.04 52.15,9.73 51.06,10.32 C49.81,11 41.73,15.48 36.08,12.27 C32.6,10.29 32.6,5.01 32.61,4.82 C31.01,6.86 26.17,21.45 40.32,22.42 C46.42,22.84 50.19,17.52 52.41,13.01 C53.22,11.38 54.49,8.99 54.83,8.35 Z" fill="url(#SVGID_8_)"/>
  <path d="M83.72,5.85 C93.24,8.43 97.89,13.27 99.44,19.75 C99.9,21.65 100.44,39.37 66.61,19.23 C54.03,11.74 57.46,7.05 58.94,6.52 C64.69,4.43 73.05,2.96 83.72,5.85 Z" fill="url(#SVGID_9_)"/>
  <path d="M32.57,4.82 C32.55,4.83 32.53,4.84 32.49,4.85 C32.49,4.85 32.48,4.85 32.48,4.85 C31.27,5.36 21.75,9.76 25.31,20.79 L35.44,22.42 C26.48,13.35 32.61,4.8 32.61,4.8 C32.61,4.8 32.59,4.81 32.57,4.82 Z" fill="url(#SVGID_10_)"/>
  <path d="M31.57,21.81 L25.31,20.8 C25.07,20.8 24.23,20.88 23.78,20.94 C20.26,21.43 16.1,23.25 13.86,27.92 C11.44,32.94 11.51,37.25 12.16,40.13 C12.35,41.1 12.74,42.18 12.74,42.18 C12.74,42.18 15.84,39.24 23.21,39.05 L31.57,21.81 Z" fill="url(#SVGID_11_)"/>
  <path d="M12.44,42.42 C9.36,45.16 5.2,51.26 8.27,58.82 C10.58,64.53 18.8,67.01 18.8,67.01 C18.8,67.04 20.44,67.52 21.29,67.52 L23.21,39.03 C19.27,39.03 15.49,40.21 13.04,41.91 C13.06,41.97 12.43,42.38 12.44,42.42 Z" fill="url(#SVGID_12_)"/>
</svg>
